X: 6965
T: Chez Seychelles
R: waltz
M: 3/4
K: Dmajor
cdc|:B3 cdc|B3 cde|f2 fedc|B3 cdc|
B3 AFG|ABAGFE|1 D3 cdc:|2 D3 EFG||
|:A2 f2 e2|e2 d3 A|BdBAF=F|E3 FAB|
c2 e3 c|d2 c2 B2|ABcBAG|F3 EFG|
A2 f2 e2|e2 d3 A|BdBABA|B6|
Bdefed|BABABd|c2 BAGA|F3 cdc||

